include/LD/assets/icons/action/new_custom46.svg

<?xml version="1.0"?><svg xmlns="http://www.w3.org/2000/svg" width="52" height="52" viewBox="0 0 52 52"><g fill="#fff"><path d="m34.8 15.6h-17.6c-0.9 0-1.6 0.7-1.6 1.6v17.6c0 0.9 0.7 1.6 1.6 1.6h17.6c0.9 0 1.6-0.7 1.6-1.6v-17.6c0-0.9-0.7-1.6-1.6-1.6z m14-7.8c0.7-0.3 1.2-0.8 1.2-1.6v-2.6c0-0.9-0.7-1.6-1.6-1.6h-2.6c-0.7 0-1.3 0.5-1.5 1.2-0.5 1.6-2 2.8-3.8 2.8s-3.3-1.2-3.8-2.8c-0.4-0.7-0.9-1.2-1.7-1.2h-3.7c-0.7 0-1.3 0.5-1.5 1.2-0.4 1.6-2 2.8-3.8 2.8-1.8 0-3.3-1.2-3.8-2.8-0.3-0.7-0.8-1.2-1.6-1.2h-3.6c-0.7 0-1.3 0.5-1.5 1.2-0.5 1.6-2.1 2.8-3.9 2.8-1.8 0-3.3-1.2-3.8-2.8-0.3-0.7-0.8-1.2-1.6-1.2h-2.6c-0.9 0-1.6 0.7-1.6 1.6v2.6c0 0.8 0.5 1.3 1.2 1.6 1.6 0.4 2.8 2 2.8 3.8s-1.2 3.3-2.8 3.8c-0.7 0.3-1.2 0.8-1.2 1.6v3.7c0 0.7 0.5 1.3 1.2 1.5 1.6 0.4 2.8 2 2.8 3.8s-1.2 3.3-2.8 3.8c-0.7 0.3-1.2 0.8-1.2 1.6v3.6c0 0.7 0.5 1.3 1.2 1.5 1.6 0.5 2.8 2.1 2.8 3.9 0 1.8-1.2 3.3-2.8 3.8-0.7 0.3-1.2 0.8-1.2 1.6v2.6c0 0.9 0.7 1.6 1.6 1.6h2.6c0.7 0 1.3-0.5 1.5-1.2 0.5-1.6 2-2.8 3.8-2.8 1.8 0 3.3 1.2 3.8 2.8 0.2 0.7 0.8 1.2 1.5 1.2h3.7c0.7 0 1.3-0.5 1.5-1.2 0.5-1.6 2-2.8 3.8-2.8s3.3 1.2 3.8 2.8c0.2 0.7 0.8 1.2 1.5 1.2h3.9c0.7 0 1.3-0.5 1.5-1.2 0.5-1.6 2-2.8 3.8-2.8 1.8 0 3.3 1.2 3.8 2.8 0.2 0.7 0.8 1.2 1.5 1.2h2.6c0.9 0 1.6-0.7 1.6-1.6v-2.6c0-0.7-0.5-1.3-1.2-1.5-1.6-0.5-2.8-2-2.8-3.8s1.2-3.3 2.8-3.8c0.7-0.2 1.2-0.8 1.2-1.5v-3.7c0-0.7-0.5-1.3-1.2-1.5-1.6-0.5-2.8-2-2.8-3.8 0-1.8 1.2-3.3 2.8-3.8 0.7-0.2 1.2-0.8 1.2-1.5v-3.9c0-0.7-0.5-1.3-1.2-1.5-1.6-0.5-2.8-2-2.8-3.8s1.4-3.4 3-3.9z m-7.6 28.6c0 2.6-2.2 4.8-4.8 4.8h-20.8c-2.6 0-4.8-2.2-4.8-4.8v-20.8c0-2.6 2.2-4.8 4.8-4.8h20.8c2.6 0 4.8 2.2 4.8 4.8v20.8z"></path></g></svg>

<svg xmlns="http://www.w3.org/2000/svg" x="0px" y="0px"
	 width="52px" height="52px" viewBox="0 0 52 52" enable-background="new 0 0 52 52" xml:space="preserve">
<g>
	<path fill="#FFFFFF" d="M34.8,15.6H17.2c-0.9,0-1.6,0.7-1.6,1.6v17.6c0,0.9,0.7,1.6,1.6,1.6h17.6c0.9,0,1.6-0.7,1.6-1.6V17.2
		C36.4,16.3,35.7,15.6,34.8,15.6z"/>
	<path fill="#FFFFFF" d="M48.8,7.8C49.5,7.5,50,7,50,6.2V3.6C50,2.7,49.3,2,48.4,2h-2.6c-0.7,0-1.3,0.5-1.5,1.2
		c-0.5,1.6-2,2.8-3.8,2.8s-3.3-1.2-3.8-2.8C36.3,2.5,35.8,2,35,2h-3.7c-0.7,0-1.3,0.5-1.5,1.2C29.4,4.8,27.8,6,26,6
		c-1.8,0-3.3-1.2-3.8-2.8C21.9,2.5,21.4,2,20.6,2H17c-0.7,0-1.3,0.5-1.5,1.2C15,4.8,13.4,6,11.6,6C9.8,6,8.3,4.8,7.8,3.2
		C7.5,2.5,7,2,6.2,2H3.6C2.7,2,2,2.7,2,3.6v2.6C2,7,2.5,7.5,3.2,7.8C4.8,8.2,6,9.8,6,11.6s-1.2,3.3-2.8,3.8C2.5,15.7,2,16.2,2,17
		v3.7c0,0.7,0.5,1.3,1.2,1.5C4.8,22.6,6,24.2,6,26s-1.2,3.3-2.8,3.8C2.5,30.1,2,30.6,2,31.4V35c0,0.7,0.5,1.3,1.2,1.5
		C4.8,37,6,38.6,6,40.4c0,1.8-1.2,3.3-2.8,3.8C2.5,44.5,2,45,2,45.8v2.6C2,49.3,2.7,50,3.6,50h2.6c0.7,0,1.3-0.5,1.5-1.2
		c0.5-1.6,2-2.8,3.8-2.8c1.8,0,3.3,1.2,3.8,2.8c0.2,0.7,0.8,1.2,1.5,1.2h3.7c0.7,0,1.3-0.5,1.5-1.2c0.5-1.6,2-2.8,3.8-2.8
		s3.3,1.2,3.8,2.8c0.2,0.7,0.8,1.2,1.5,1.2H35c0.7,0,1.3-0.5,1.5-1.2c0.5-1.6,2-2.8,3.8-2.8c1.8,0,3.3,1.2,3.8,2.8
		c0.2,0.7,0.8,1.2,1.5,1.2h2.6c0.9,0,1.6-0.7,1.6-1.6v-2.6c0-0.7-0.5-1.3-1.2-1.5c-1.6-0.5-2.8-2-2.8-3.8s1.2-3.3,2.8-3.8
		c0.7-0.2,1.2-0.8,1.2-1.5v-3.7c0-0.7-0.5-1.3-1.2-1.5c-1.6-0.5-2.8-2-2.8-3.8c0-1.8,1.2-3.3,2.8-3.8c0.7-0.2,1.2-0.8,1.2-1.5V17
		c0-0.7-0.5-1.3-1.2-1.5c-1.6-0.5-2.8-2-2.8-3.8S47.2,8.3,48.8,7.8z M41.2,36.4c0,2.6-2.2,4.8-4.8,4.8H15.6c-2.6,0-4.8-2.2-4.8-4.8
		V15.6c0-2.6,2.2-4.8,4.8-4.8h20.8c2.6,0,4.8,2.2,4.8,4.8V36.4z"/>
</g>
</svg>
